T: Doctor Ross's 50th Welcome To The Argyllshire Gathering
M: 6/8
L: 1/8
K: Amix
A>ce c<Ac | e>fe c2 A | c<ee e>cA | B<dc B2 G |A>ce c<Ac | e>fe c2 A | c<ee e>dB |[1 A3 A2 e :|[2 A3 A2 g ||a2 A A>ce | e>ca c2 A | a>ed c<Ac | B<dc B2 g |a2 A A>ce | e>ca c2 A | c<ee e>dB | A3 A2 g |a2 A A>ce | e>ca c2 A | a>ed c<Ac | B<dc B2 GA>Bc B>cd | c<ea c2 A | c<ee e>dB | A3 A2 e |||: A2 A c2 d | e>fe c2 A | e2 A c2 e | B<dc B2 G |A2 A c2 d | e>fe c2 A | c<ee e>dB |[1 A3 A2 e :|[2 A3 A2 g ||a2 A e2 A | e>ca c2 A | c<ea e>cA | B<dc B2 g |a2 A e2 A | e>ca c2 A | c<ee e>dB | A3 A2 g |a2 A e2 A | e>ca c2 A | c<ea e>cA | B<dc B2 G |A>Bc B>cd | c<ea c2 A | c<ee e>dB | A3- A2 |]
